src/2-landmarks/turnstile--default.svg

<svg width="1300" height="1000" viewBox="0 0 1300 1000" fill="none" xmlns="http://www.w3.org/2000/svg"><path d="M0 900h1300v100H0V900Z" fill="#000"/><path fill-rule="evenodd" clip-rule="evenodd" d="M1178 547c8.28 0 15 6.716 15 15v338h7V560c0-11.046-8.95-20-20-20h-10.52c-3.38-22.637-22.9-40-46.48-40h-72c-2.76 0-5 2.239-5 5v35h-10c-11.05 0-20 8.954-20 20H818.5a3.5 3.5 0 1 0 0 7H1016v15.524l-198.824 71.692a3.29 3.29 0 0 0-2.176 3.097c0 2.281 2.263 3.871 4.409 3.097L1016 589.524V900h7V562c0-8.284 6.72-15 15-15h140Zm-55-40c19.7 0 36.08 14.246 39.39 33H1053v-33h70Z" fill="#000"/><path fill-rule="evenodd" clip-rule="evenodd" d="M1046 585c0-8.284 6.72-15 15-15h94c8.28 0 15 6.716 15 15v40c0 8.284-6.72 15-15 15h-94c-8.28 0-15-6.716-15-15v-40Zm7 2c0-5.523 4.48-10 10-10h90c5.52 0 10 4.477 10 10v36c0 5.523-4.48 10-10 10h-90c-5.52 0-10-4.477-10-10v-36ZM608 900h-7V589.524L404.409 660.41c-2.146.774-4.409-.816-4.409-3.097a3.29 3.29 0 0 1 2.176-3.097L601 582.524V567H403.5a3.5 3.5 0 1 1 0-7H601c0-11.046 8.954-20 20-20h10v-35a5 5 0 0 1 5-5h72c23.579 0 43.102 17.363 46.482 40H765c11.046 0 20 8.954 20 20v340h-7V562c0-8.284-6.716-15-15-15H623c-8.284 0-15 6.716-15 15v338Zm30-360h109.39c-3.311-18.754-19.687-33-39.39-33h-70v33Z" fill="#000"/><path fill-rule="evenodd" clip-rule="evenodd" d="M646 570c-8.284 0-15 6.716-15 15v40c0 8.284 6.716 15 15 15h94c8.284 0 15-6.716 15-15v-40c0-8.284-6.716-15-15-15h-94Zm2 7c-5.523 0-10 4.477-10 10v36c0 5.523 4.477 10 10 10h90c5.523 0 10-4.477 10-10v-36c0-5.523-4.477-10-10-10h-90Z" fill="#000"/><path d="M0 800v-7h328c8.284 0 15-6.716 15-15V562c0-8.284-6.716-15-15-15H0v-7h330c11.046 0 20 8.954 20 20v340h-7V795.199A19.922 19.922 0 0 1 330 800H0Zm1257-4.801a19.936 19.936 0 0 0 13 4.801h30v-7h-28c-8.28 0-15-6.716-15-15V562c0-8.284 6.72-15 15-15h28v-7h-30c-11.05 0-20 8.954-20 20v340h7V795.199Z" fill="#000"/></svg>

<svg width="1300" height="1000" viewBox="0 0 1300 1000" fill="none" xmlns="http://www.w3.org/2000/svg">
<path d="M0 547H328C336.284 547 343 553.716 343 562V778C343 786.284 336.284 793 328 793H0V547Z" fill="white"/>
<path d="M0 900H1300V1000H0V900Z" fill="black"/>
<path fill-rule="evenodd" clip-rule="evenodd" d="M1178 547C1186.28 547 1193 553.716 1193 562V900H1200V560C1200 548.954 1191.05 540 1180 540H1169.48C1166.1 517.363 1146.58 500 1123 500H1051C1048.24 500 1046 502.239 1046 505V540H1036C1024.95 540 1016 548.954 1016 560H818.5C816.567 560 815 561.567 815 563.5C815 565.433 816.567 567 818.5 567H1016V582.524L817.176 654.216C815.87 654.686 815 655.925 815 657.313C815 659.594 817.263 661.184 819.409 660.41L1016 589.524V900H1023V562C1023 553.716 1029.72 547 1038 547H1178ZM1123 507C1142.7 507 1159.08 521.246 1162.39 540H1053V507H1123Z" fill="black"/>
<path fill-rule="evenodd" clip-rule="evenodd" d="M1046 585C1046 576.716 1052.72 570 1061 570H1155C1163.28 570 1170 576.716 1170 585V625C1170 633.284 1163.28 640 1155 640H1061C1052.72 640 1046 633.284 1046 625V585ZM1053 587C1053 581.477 1057.48 577 1063 577H1153C1158.52 577 1163 581.477 1163 587V623C1163 628.523 1158.52 633 1153 633H1063C1057.48 633 1053 628.523 1053 623V587Z" fill="black"/>
<path fill-rule="evenodd" clip-rule="evenodd" d="M608 900H601V589.524L404.409 660.41C402.263 661.184 400 659.594 400 657.313C400 655.925 400.87 654.686 402.176 654.216L601 582.524V567H403.5C401.567 567 400 565.433 400 563.5C400 561.567 401.567 560 403.5 560H601C601 548.954 609.954 540 621 540H631V505C631 502.239 633.239 500 636 500H708C731.579 500 751.102 517.363 754.482 540H765C776.046 540 785 548.954 785 560V900H778V562C778 553.716 771.284 547 763 547H623C614.716 547 608 553.716 608 562V900ZM638 540H747.39C744.079 521.246 727.703 507 708 507H638V540Z" fill="black"/>
<path fill-rule="evenodd" clip-rule="evenodd" d="M646 570C637.716 570 631 576.716 631 585V625C631 633.284 637.716 640 646 640H740C748.284 640 755 633.284 755 625V585C755 576.716 748.284 570 740 570H646ZM648 577C642.477 577 638 581.477 638 587V623C638 628.523 642.477 633 648 633H738C743.523 633 748 628.523 748 623V587C748 581.477 743.523 577 738 577H648Z" fill="black"/>
<path d="M0 800V793H328C336.284 793 343 786.284 343 778V562C343 553.716 336.284 547 328 547H0V540H330C341.046 540 350 548.954 350 560V900H343V795.199C339.504 798.192 334.963 800 330 800H0Z" fill="black"/>
<path d="M1257 795.199C1260.5 798.192 1265.04 800 1270 800H1300V793H1272C1263.72 793 1257 786.284 1257 778V562C1257 553.716 1263.72 547 1272 547H1300V540H1270C1258.95 540 1250 548.954 1250 560V900H1257V795.199Z" fill="black"/>
</svg>
